X: 12
T:Raemona's 
R:
C:Brian Hebert
M:3/4
L:1/8
K:G
dc (3BcB G>E||D2 B3D|_E2 B3_E|=E2 B3d|c2 B2 A2|G2 E3G|F2 GA3|D6|D3B, C^C
|[1 D2 B3D|_E2 B3_E|=E2 B3d|c2 B2 A2|G2 E3G|F2 GA3|G6|G3D (3EFE :|
|[2 D2 B3d|_e2 B3E|=E2 B3d|ed Bd BA|G2 E3G|F2 GA3|G6|G3d ef|
|: g6|f2 dB3|c3d (3efg|d6|e3f (3gfe|de dc B2|A2 ^c2 (3efe|d3d ef|
g6|f2 dB3|c3d (3efg|d4 dB|c3c2c|c2 B2 F2|[1 G6|G3d ef :|[2 g6|G3B, C^C|]
